X:2603
T:Capt. Hood's March. BC.41
M:C
L:1/8
Q:100
S:Benjamin Cooke MS.circa 1770, F.Kidson Coll.
R:March
O:England
A:x
N:There are at least 4 distinguished Capt. Hoods of around the right
N:period,all of whom were related and all of whom went on to achieve high
N:office in the Admiralty,admirals etc.CGP.
Z:John Bagnall
K:D
A | d2 d>d d2 f>e | d2 A2 d2 e2 | f2 f>f f2 a>g | f2 e2 f2 g2 |!
a2 a>a a2 b>a | g2 g>g g2 a>g | f2 ed a2 gf | e2 e>e e2 z2 :|!
|:A | A>BA>B c>dc>d | e>fe>f g2 fe | d>ed>e f>gf>g | a>ba>b =c'2 ba|!
bgeb afda | g>fe>d c2 B>A | B>cd>g f2 "tr"e2 | d2 d>d d2 z2 :|]


